.local/share/icons/Gruvbox-Plus-Dark/panel/16/museeks-tray.svg

<svg xmlns="http://www.w3.org/2000/svg" width="16" height="16" version="1.1">
 <defs>
  <style id="current-color-scheme" type="text/css">
   .ColorScheme-Text { color:#ebdbb2; } .ColorScheme-Highlight { color:#458588; }
  </style>
 </defs>
 <path style="fill:currentColor;opacity:0.3" class="ColorScheme-Text" d="M 12,1 7.9765625,5.7773438 9.6582031,7.2480469 10.519531,8 5.8300781,12.101562 8,14 11,11 v 4 h 4 V 1 Z"/>
 <path d="M 9,8 5,11.5 1,15 V 1 l 4,3.5 z" style="fill:currentColor" class="ColorScheme-Text"/>
</svg>

<svg width="16" height="16" version="1.1" xmlns="http://www.w3.org/2000/svg">
  <defs>
    <style id="current-color-scheme" type="text/css">.ColorScheme-Text { color:#ebdbb2; } .ColorScheme-Highlight { color:#458588; } .ColorScheme-NeutralText { color:#fe8019; } .ColorScheme-PositiveText { color:#689d6a; } .ColorScheme-NegativeText { color:#fb4934; }</style>
  </defs>
  <path class="ColorScheme-Text" d="m12 1-4.023 4.777 1.682 1.471 0.8613 0.752-4.689 4.102 2.17 1.898 3-3v4h4v-14z" fill="currentColor" opacity=".3"/>
  <path class="ColorScheme-Text" d="m9 8-8 7v-14l4 3.5z" fill="currentColor"/>
</svg>
